X:1
T:Nun bitten wir
T:André Vierendeels
T:Melody by Georg Vogler (1625) (Soprano voice)
T:Source : Catechismus---Würzburg---J.Volmari---1652. Editor : André Vierendeels (14/10/17).
T:Notes : Original clef : C1, other voices supplied  editorially Original note values have been halved Text Middle German 
T:Nun bitten wir
T:©
T:©
C:André Vierendeels
Z:©
%%score [ 1 2 3 ]
L:1/8
Q:1/4=115
M:2/2
K:F
V:1 treble nm="Soprano" snm="S"
V:2 treble-8 nm="Tenor" snm="T"
V:3 bass nm="Bass" snm="B"
V:1
 F8 | G4 G4 | F4 F4 | D8 | C8 | F4 E4 | !fermata!F4 A4 | c4 d4 | c4 A4 | F4 D4 | E4 F4 | %11
w: Nun|bit- ten|wir den|hei-||li- gen|Geist, in|dem rech-|ten Glau-|ben al-|* ler-|
w: O|wah- re|Liecht gib|uns|_|* dem|Schein, lehr|uns Je-|sum Chri-|stum er-|ken- nen|
 !fermata!A4 A2 A2 | A2 G2 A4 | F2 F2 G2 G2 | A4 F4 | G2 G2 A4 | F4 D4 | G4 F2 E2 | D4 C4 | %19
w: meist, dasz er|uns be- hü-|te an un- serm|En- de,|wann wir hein|fah- ren|ausz die- sem|E- len-|
w: fein, dasz wir|in ihn blei-|ben, un- se- rem|Hey- land,|und ihn lo-|ben dort,|im rech- ten|Vat- ter-|
 !fermata!D4 z2 E2 | F4 F4 | G4 !fermata!F4 |] %22
w: de, Ky-|ri'e, e-|lei- son.|
w: land, Ky-|ri'e, e-|lei- son|
V:2
 c8 | e4 c4 | c6 A2 | A4 d4 | G6 c2 | G8 | !fermata!A4 c4 | e4 d4 | e4 e4 | c4 A4 | G4 d4 | %11
w: Nun|bit- ten|wir den|hei- *|li- *|gen|Geist, in|dem rech-|ten Glau-|ben al-|* ler|
w: O|höch- ster|Trö- ster|in _|al- *|ler|Noth, hilff|dasz wir|nicht förch-|ten Höll|_ und|
 !fermata!c4 c2 c2 | c2 d2 f4 | c2 A2 B2 d2 | c4 c4 | d2 d2 c4 | A4 A4 | d4 d2 c2 | A4 E4 | %19
w: meist, dasz er|uns be- hü-|te an un- serm|En- de,|wann wir hein|fah- ren|ausz die- sem|E- len-|
w: Todt, son- der|ü- ber al-|les dich hertz- lich|lie- ben,|und uns selb-|sten in|gu- ten Wer-|cken ü-|
 !fermata!A4 z2 G2 | A6 c2 | e4 !fermata!c4 |] %22
w: de, Ky-|ri'e, e-|lei- son.|
w: ben, Ky-|ri'e, e-|lei- son?|
V:3
 F,8 | C,4 E,4 | F,6 F,2 | D,4 B,,4 | C,6 E,2 | C,8 | !fermata!F,4 F,4 | C,4 G,4 | C,4 A,,4 | %9
w: Nun|bit- ten|wir den|hei- *|li- *|gen|Geist, in|dem rech-|ten Glau-|
w: Wir|bit- ten|an die|dritt _|Per- *||Sohn, die|von Vat-|ter ausz-|
 F,,4 D,4 | C,4 B,,4 | !fermata!F,,4 F,2 F,2 | F,2 G,2 D,4 | F,,2 F,,2 G,,2 G,,2 | A,,4 F,,4 | %15
w: ben al-|* ler|meist, dasz er|uns be- hü-|te an un- serm|En- de,|
w: geht und|dem _|Sohn, wöl- len|al- len drey-|en, hertz- * lich|sin- gen,|
 B,,2 B,,2 A,,4 | D,4 D,4 | G,4 D,2 G,2 | D,4 A,,4 | !fermata!D,4 z2 C,2 | F,6 F,2 | %21
w: wann wir hein|fah- ren|ausz die- sem|E- len-|de, Ky-|ri'e, e-|
w: san- ctus mit|_ frö|_ li- *|chen Stim-|men, Ky-|rie'e, e-|
 C,4 !fermata!F,4 |] %22
w: lei- son.|
w: lei- son|

